X: 30001
T: Off In The Morning
R: reel
M: 4/4
K: Gmajor
|~G3B dB (3BBB|gBfB eBdB|cBAc BAGB|Add^c d=cBA|
~G3B dB (3BBB|gBfB eBdB|c2 (3ABc BAGB|1 ADFA G2 (3DEF:|2 ADFA GABd||
|:~g3f gdBd|gBfB eBdB|cBAc BAGB|Add^c defa|
~g3f gdBd|gBfB eBdB|cBAc BAGB|1 ADFA GABd:|2 ADFA G2 (3DEF||

